assets/img/common/page-arrow-last.svg

<svg fill="none" height="20" viewBox="0 0 16 20" width="16" xmlns="http://www.w3.org/2000/svg"><g clip-rule="evenodd" fill="#000" fill-rule="evenodd"><path d="m6.14115 19.8517c-.1882-.1977-.1882-.5183 0-.7161l8.69535-9.1356-8.69535-9.135643c-.1882-.197732-.1882-.518323 0-.716056.18821-.1977346.49335-.1977346.68155 0l9.0361 9.493669c.0904.09496.1412.22374.1412.35803 0 .1343-.0508.2631-.1412.358l-9.0361 9.4937c-.1882.1977-.49334.1977-.68155 0z"/><path d="m.141154 19.8517c-.1882043-.1977-.1882043-.5183 0-.7161l8.695366-9.1356-8.695367-9.135643c-.1882041-.197732-.1882041-.518323 0-.716056.188205-.1977347.493345-.1977347.681549 0l9.036148 9.493669c.09037.09496.14115.22374.14115.35803 0 .1343-.05078.2631-.14115.358l-9.036147 9.4937c-.188205.1977-.493344.1977-.681549 0z"/></g></svg>

<svg width="16" height="20" viewBox="0 0 16 20" fill="none" xmlns="http://www.w3.org/2000/svg">
  <path fill-rule="evenodd" clip-rule="evenodd"
    d="M6.14115 19.8517C5.95295 19.654 5.95295 19.3334 6.14115 19.1356L14.8365 10L6.14115 0.864357C5.95295 0.666625 5.95295 0.346034 6.14115 0.148301C6.32936 -0.0494336 6.6345 -0.0494336 6.8227 0.148301L15.8588 9.64197C15.9492 9.73693 16 9.86571 16 10C16 10.1343 15.9492 10.2631 15.8588 10.358L6.8227 19.8517C6.6345 20.0494 6.32936 20.0494 6.14115 19.8517Z"
    fill="black" />
  <path fill-rule="evenodd" clip-rule="evenodd"
    d="M0.141154 19.8517C-0.0470503 19.654 -0.0470503 19.3334 0.141154 19.1356L8.83652 10L0.141153 0.864357C-0.0470511 0.666625 -0.0470511 0.346034 0.141153 0.148301C0.329358 -0.0494337 0.634498 -0.0494337 0.822702 0.148301L9.85885 9.64197C9.94922 9.73693 10 9.86571 10 10C10 10.1343 9.94922 10.2631 9.85885 10.358L0.822703 19.8517C0.634498 20.0494 0.329359 20.0494 0.141154 19.8517Z"
    fill="black" />
</svg>
